X:1
T:In Tenebris Lumen, 88.88.88
T:John Bacchus Dykes, 1875
T:In Tenebris Lumen, 88.88.88
T:Public Domain
C:John Bacchus Dykes, 1875
Z:Public Domain
%%score ( 1 2 ) ( 3 4 )
L:1/8
M:3/4
K:Eb
V:1 treble 
V:2 treble 
V:3 bass 
V:4 bass 
V:1
 [EB]2 [GB]2 [FB]2 | [Ee]4 [Ec]2 | [EB]4 [DF]2 | [B,G]6 | [=B,G]2 [CG]2 [DG]2 | [Ee]2 [Fd]2 [Gc]2 | %6
 [FB]4 [FA]2 | [FG]4 [FG]2 | [=EG]2 [Fc]2 [Gc]2 | (G2 F2) [EF]2 | [DF]2 [EB]2 [FB]2 | (F2 E4) | %12
 [EB]2 [Ec]2 [Dd]2 | [Ec]4 [E=A]2 | [DG]4 [D^F]2 | [DG]4 [DB]2 | [DB]2 [Ec]2 [Fd]2 | [Ee]4 E2 | %18
 (B,2 C2) [DE]2 | [CE]6 | [Ee]2 [Ed]2 [Ec]2 | [EB]4 [EG]2 | [DG]2 [DF]4 | E6 |] %24
V:2
 x6 | x6 | x6 | x6 | x6 | x6 | x6 | x6 | x6 | c4 x2 | x6 | B6 | x6 | x6 | x6 | x6 | x6 | x4 E2 | %18
 E4 x2 | x6 | x6 | x6 | x6 | E6 |] %24
V:3
 [E,G,]2 [E,B,]2 [B,,A,]2 | [C,G,]4 [A,,A,]2 | [B,,G,]4 [B,,A,]2 | [E,G,]6 | %4
 [G,,G,]2 [=A,,G,]2 [=B,,G,]2 | [C,G,]2 [D,=B,]2 [E,C]2 | [F,D]4 [F,C]2 | [G,=B,]4 [G,B,]2 | %8
 (C,2 D,2) [=E,B,]2 | [F,A,]4 [F,=A,]2 | (B,,2 C,2) [D,A,]2 | [E,G,]6 | [D,G,]2 [C,=A,]2 [B,,B,]2 | %13
 [C,=A,]4 [C,C]2 | [D,B,]4 [D,=A,]2 | [G,B,]4 [G,B,]2 | [B,,A,]4 [B,,A,]2 | [C,G,]4 E,2 | %18
 (G,,2 A,,2) [B,,E,]2 | [A,,E,]6 | [A,,C]2 [A,,F,]2 [=A,,^F,]2 | [B,,G,]4 [B,,B,]2 | %22
 [B,,B,]2 [B,,A,]4 | [E,G,]6 |] %24
V:4
 x6 | x6 | x6 | x6 | x6 | x6 | x6 | x6 | C4 x2 | x6 | B,4 x2 | x6 | x6 | x6 | x6 | x6 | x6 | %17
 x4 E,2 | E,4 x2 | x6 | x6 | x6 | x6 | x6 |] %24

